X: 28292
T: Mrs. Ross'
R: jig
M: 6/8
K: Dmajor
d3cBA|B3 AGF|G2B AGF|BEE E3|
d3 cBA|B3 AGF|GFG AEG|FDD D3||
DFA DFA|dcd AFD|GBG FAF|BGE E3|
DFA DFA|dcd AFD|GFG AEG|FDD D3||
"I1"ded cBA|

